usr/share/icons/biglinux-icons-material/24/actions/view-calendar-list.svg

<svg xmlns="http://www.w3.org/2000/svg" viewBox="0 0 24 24"><path d="M5 4v2H4v1h1v1H4v1h1v6H4v1h1v1H4v1h1v2h15V4H5zm3 1h11v14H8V5zm1 2v1h9V7H9zm0 4v1h9v-1H9zm0 4v1h9v-1H9z" style="fill:currentColor;fill-opacity:1;stroke:none;color:#dedede"/></svg>

<svg xmlns="http://www.w3.org/2000/svg" viewBox="0 0 24 24">
  <defs id="defs3051">
    <style type="text/css" id="current-color-scheme">
      .ColorScheme-Text {
        color:#dedede;
      }
      </style>
  </defs>
  <path
     style="fill:currentColor;fill-opacity:1;stroke:none" 
     d="M 5 4 L 5 6 L 4 6 L 4 7 L 5 7 L 5 8 L 4 8 L 4 9 L 5 9 L 5 15 L 4 15 L 4 16 L 5 16 L 5 17 L 4 17 L 4 18 L 5 18 L 5 20 L 8 20 L 20 20 L 20 19 L 20 4 L 8 4 L 5 4 z M 8 5 L 10 5 L 11 5 L 19 5 L 19 7 L 19 8 L 19 10 L 19 11 L 19 13 L 19 14 L 19 16 L 19 17 L 19 19 L 11 19 L 10 19 L 8 19 L 8 17 L 8 16 L 8 14 L 8 13 L 8 11 L 8 10 L 8 8 L 8 7 L 8 5 z M 9 7 L 9 8 L 18 8 L 18 7 L 9 7 z M 9 11 L 9 12 L 18 12 L 18 11 L 9 11 z M 9 15 L 9 16 L 18 16 L 18 15 L 9 15 z "
     class="ColorScheme-Text"
     />
</svg>
